packages/hexon-web/src/assets/logo.svg

<svg viewBox="0 0 1240 1240" xmlns="http://www.w3.org/2000/svg" fill-rule="evenodd" clip-rule="evenodd" stroke-linejoin="round" stroke-miterlimit="2"><circle cx="620" cy="620" r="417.197" fill="#0e83cd"/><path d="M755.627 381.203c.132-24.618 20.158-44.562 44.804-44.562 24.729 0 44.805 20.077 44.805 44.805l-.001.242h.001v477.111l-.235.136c-2.313 22.565-21.399 40.191-44.57 40.191-23.432 0-42.688-18.027-44.641-40.957l-.163-.097V666.017H484.376v192.782l-.235.136c-2.313 22.565-21.399 40.191-44.57 40.191-23.432 0-42.688-18.027-44.641-40.957l-.164-.097v-477.11l.003-.002c.263-24.506 20.237-44.319 44.802-44.319 24.632 0 44.648 19.92 44.804 44.516l.001.289v192.54h271.251V381.203z" fill="#fff" fill-rule="nonzero"/></svg>

<?xml version="1.0" encoding="UTF-8" standalone="no"?>
<!DOCTYPE svg PUBLIC "-//W3C//DTD SVG 1.1//EN" "http://www.w3.org/Graphics/SVG/1.1/DTD/svg11.dtd">
<svg width="100%" height="100%" viewBox="0 0 1240 1240" version="1.1" xmlns="http://www.w3.org/2000/svg" xmlns:xlink="http://www.w3.org/1999/xlink" xml:space="preserve" xmlns:serif="http://www.serif.com/" style="fill-rule:evenodd;clip-rule:evenodd;stroke-linejoin:round;stroke-miterlimit:2;">
    <g transform="matrix(1.16102,0,0,1.16102,-22.9982,32.9118)">
        <circle cx="553.821" cy="505.664" r="417.197" style="fill:rgb(14,131,205);"/>
    </g>
    <path d="M755.627,381.203C755.759,356.585 775.785,336.641 800.431,336.641C825.16,336.641 845.236,356.718 845.236,381.446L845.235,381.688L845.236,381.688L845.236,858.799L845.001,858.935C842.688,881.5 823.602,899.126 800.431,899.126C776.999,899.126 757.743,881.099 755.79,858.169L755.627,858.072L755.627,666.017L484.376,666.017L484.376,858.799L484.141,858.935C481.828,881.5 462.742,899.126 439.571,899.126C416.139,899.126 396.883,881.099 394.93,858.169L394.766,858.072L394.766,380.962L394.769,380.96C395.032,356.454 415.006,336.641 439.571,336.641C464.203,336.641 484.219,356.561 484.375,381.157L484.376,381.446L484.376,573.986L755.627,573.986L755.627,381.204L755.627,381.203Z" style="fill:white;fill-rule:nonzero;"/>
</svg>
